src/assets/icons/switch.svg

<?xml version="1.0" encoding="UTF-8"?>
<svg width="32px" height="32px" viewBox="0 0 32 32" version="1.1" xmlns="http://www.w3.org/2000/svg" xmlns:xlink="http://www.w3.org/1999/xlink">
    <title>椭圆形备份 4</title>
    <g id="扩展程序" stroke="none" stroke-width="1" fill="none" fill-rule="evenodd">
        <g id="Swap" transform="translate(-167.000000, -243.000000)">
            <g id="编组" transform="translate(167.000000, 243.000000)">
                <circle id="椭圆形备份-4" fill="#297AFF" cx="16" cy="16" r="16"></circle>
                <path d="M13.0026407,9 L13.0216588,9.00017973 C13.0450976,9.0006228 13.0685238,9.00188502 13.0918908,9.00396641 L13.0026407,9 C13.0537129,9 13.103891,9.00382865 13.1529034,9.01121459 C13.1698492,9.01385272 13.186538,9.01681234 13.2031574,9.02019747 C13.2241846,9.02438904 13.2449508,9.02932352 13.2654552,9.03489399 C13.2829955,9.03972549 13.3009796,9.04514099 13.3188296,9.05107328 C13.3361934,9.05681015 13.3528771,9.06288066 13.369347,9.06937575 C13.3882128,9.07680529 13.4072357,9.08497258 13.4260417,9.09375718 C13.4478443,9.10399512 13.469352,9.11503374 13.4903904,9.12681067 C13.501109,9.13271731 13.5117193,9.1389112 13.5222369,9.14531687 C13.5435911,9.15842699 13.564494,9.17226707 13.5848273,9.1868509 C13.5977538,9.19602294 13.6109051,9.20595004 13.6238602,9.21624472 C13.6857393,9.26547748 13.7413585,9.3214364 13.7898547,9.38324992 L13.7097475,9.29289322 C13.7472235,9.33036927 13.7811032,9.3700798 13.8113866,9.41159595 C13.8260361,9.4318321 13.839899,9.45242031 13.8529975,9.47353236 C13.8647841,9.49234887 13.8760131,9.51190091 13.886528,9.53173234 C13.8943382,9.54658483 13.9018496,9.56163784 13.9089869,9.57690085 C13.9158999,9.59162726 13.9224476,9.60661126 13.9286105,9.62171547 C13.9379566,9.6445685 13.9464326,9.66770743 13.9540607,9.69122834 C13.9580971,9.70387074 13.9620298,9.71691515 13.9656906,9.73001959 C13.972869,9.75540524 13.9789674,9.78108174 13.9840553,9.80711987 C13.9864935,9.82004914 13.9887246,9.83277508 13.9907083,9.84553204 C13.9941883,9.86741534 13.9969306,9.89006512 13.998903,9.91293499 C14.0004843,9.93173451 14.001546,9.94973363 14.0021236,9.96774538 C14.002459,9.97778921 14.0026407,9.98887338 14.0026407,10 L14.0026407,22 C14.0026407,22.5522847 13.5549254,23 13.0026407,23 C12.4503559,23 12.0026407,22.5522847 12.0026407,22 L12.0022136,12.414 L10.8813203,13.5355339 C10.4907961,13.9260582 9.85763107,13.9260582 9.46710678,13.5355339 C9.07658249,13.1450096 9.07658249,12.5118446 9.46710678,12.1213203 L12.2955339,9.29289322 L12.3771917,9.21968877 C12.3800462,9.21739784 12.3829135,9.21512226 12.3857935,9.21286214 L12.2955339,9.29289322 C12.3320535,9.2563736 12.370695,9.22326909 12.4110615,9.19357969 C12.43434,9.176563 12.4583784,9.16044452 12.4831229,9.14537046 C12.4935621,9.1389112 12.5041724,9.13271731 12.5148692,9.1267352 C12.5359294,9.11503374 12.557437,9.10399512 12.5793788,9.09372989 C12.5980456,9.08497258 12.6170686,9.07680529 12.6362781,9.06925531 C12.6524042,9.06288066 12.669088,9.05681015 12.6859721,9.0511777 C12.7050431,9.04489462 12.7237799,9.03927656 12.7426357,9.03421911 C12.7607195,9.02926282 12.7798149,9.02471645 12.7991137,9.0207262 C12.8181621,9.01689011 12.8365145,9.01364052 12.8549285,9.01090541 C12.8739581,9.00800578 12.893694,9.00566646 12.9135974,9.00391025 C12.9369286,9.00187582 12.9602693,9.00062118 12.9836226,9.00017973 C12.9898423,9.00006024 12.9962345,9 13.0026407,9 Z M19.0026407,9 C19.5549254,9 20.0026407,9.44771525 20.0026407,10 L20.0022136,19.585 L21.123961,18.4644661 C21.5144853,18.0739418 22.1476503,18.0739418 22.5381746,18.4644661 C22.9286989,18.8549904 22.9286989,19.4881554 22.5381746,19.8786797 L19.7097475,22.7071068 C19.6827335,22.7341207 19.6541812,22.7595963 19.6242332,22.7833908 L19.7097475,22.7071068 C19.6702827,22.7465715 19.6283401,22.7820481 19.5844203,22.8135366 C19.564494,22.8277329 19.5435911,22.841573 19.5221585,22.8546295 C19.5117193,22.8610888 19.501109,22.8672827 19.4904121,22.8732648 C19.469352,22.8849663 19.4478443,22.8960049 19.4259026,22.9062701 C19.4072357,22.9150274 19.3882128,22.9231947 19.3690033,22.9307447 C19.3528771,22.9371193 19.3361934,22.9431898 19.3193093,22.9488223 C19.3009796,22.954859 19.2829955,22.9602745 19.2649007,22.9651732 C19.2449508,22.9706765 19.2241846,22.975611 19.203179,22.979887 C19.186538,22.9831877 19.1698492,22.9861473 19.1531084,22.9886814 C19.1313945,22.9920267 19.1096612,22.9945829 19.0877264,22.9964311 C19.0704911,22.9978612 19.053086,22.9988858 19.0356689,22.9994578 C19.0248515,22.9998183 19.0137673,23 19.0026407,23 L18.9696125,22.9994578 C18.9522695,22.9988882 18.9349384,22.9978699 18.9176383,22.9964029 L19.0026407,23 C18.9522729,23 18.9027748,22.9962762 18.8544067,22.989089 C18.8365145,22.9863595 18.8181621,22.9831099 18.7998947,22.9793458 C18.7798149,22.9752836 18.7607195,22.9707372 18.741845,22.9656522 C18.7237799,22.9607234 18.7050431,22.9551054 18.6864517,22.9489267 C18.669088,22.9431898 18.6524042,22.9371193 18.6359344,22.9306242 C18.6170686,22.9231947 18.5980456,22.9150274 18.5792397,22.9062428 C18.557437,22.8960049 18.5359294,22.8849663 18.514891,22.8731893 C18.5041724,22.8672827 18.4935621,22.8610888 18.4830445,22.8546831 C18.4583784,22.8395555 18.43434,22.823437 18.4110691,22.8063354 C18.4024868,22.8001136 18.3939898,22.7936528 18.3855745,22.7870379 C18.3224005,22.7373899 18.265167,22.6801494 18.2154267,22.6167501 L18.2955339,22.7071068 C18.2580579,22.6696307 18.2241781,22.6299202 18.1938947,22.588404 C18.1792452,22.5681679 18.1653824,22.5475797 18.1522839,22.5264676 C18.1404973,22.5076511 18.1292682,22.4880991 18.1187534,22.4682677 C18.1109432,22.4534152 18.1034317,22.4383622 18.0962945,22.4230991 C18.0893815,22.4083727 18.0828338,22.3933887 18.0766709,22.3782845 C18.0673248,22.3554315 18.0588488,22.3322926 18.0512207,22.3087717 C18.0471843,22.2961293 18.0432515,22.2830848 18.0395908,22.2699804 C18.0324123,22.2445948 18.026314,22.2189183 18.0212261,22.1928801 C18.0187879,22.1799509 18.0165568,22.1672249 18.0145731,22.154468 C18.0110293,22.1321752 18.0082508,22.109107 18.006271,22.085811 C18.0047856,22.0679231 18.0037635,22.050591 18.0031901,22.0332468 C18.0028256,22.0224019 18.0026407,22.0112225 18.0026407,22 L18.0026407,10 C18.0026407,9.44771525 18.4503559,9 19.0026407,9 Z" id="形状结合" fill="#FFFFFF"></path>
            </g>
        </g>
    </g>
</svg>

<svg width="32" height="32" xmlns="http://www.w3.org/2000/svg"><g fill="none" fill-rule="evenodd"><circle fill="#297aff" cx="16" cy="16" r="16"/><path d="M13.003 9h.019c.023 0 .047.002.07.004L13.002 9a1.008 1.008 0 0 1 .622.216c.062.05.117.105.166.167l-.08-.09a1.008 1.008 0 0 1 .293.707v12a1 1 0 0 1-2 0v-9.586l-1.122 1.122a1 1 0 1 1-1.414-1.415l2.829-2.828.081-.073.009-.007-.09.08A1.008 1.008 0 0 1 12.984 9h.019zm6 0a1 1 0 0 1 1 1v9.585l1.121-1.12a1 1 0 0 1 1.414 1.414l-2.828 2.828a1.006 1.006 0 0 1-.086.076l.086-.076a1.007 1.007 0 0 1-.707.293h-.033l-.052-.004.085.004a1.008 1.008 0 0 1-.617-.213 1.008 1.008 0 0 1-.17-.17l.08.09a1.008 1.008 0 0 1-.293-.707V10a1 1 0 0 1 1-1z" fill="#fff"/></g></svg>
